icons/storybook.svg

<svg width="16" height="16" viewBox="0 0 16 16" fill="none" xmlns="http://www.w3.org/2000/svg">
<path fill-rule="evenodd" clip-rule="evenodd" d="M2.63256 2.78237L3.03239 13.444L3.03298 13.4445C3.04531 13.7821 3.31539 14.0534 3.65298 14.0687L12.3213 14.4579C12.3313 14.4585 12.3412 14.4585 12.3506 14.4585H12.3506C12.7094 14.4585 13 14.1679 13 13.8091V2.19114L12.9988 2.15063C12.9759 1.79248 12.6677 1.52064 12.3095 1.54295L3.24141 2.11011C2.88972 2.13184 2.61965 2.4301 2.63256 2.78237ZM10.6251 6.36501C10.3961 6.54232 8.69462 6.66327 8.69462 6.4108C8.73043 5.44675 8.2989 5.40506 8.05876 5.40506C7.83155 5.40506 7.44757 5.47375 7.44757 5.99042C7.44757 6.51646 8.00808 6.81348 8.66603 7.16215C9.60091 7.65756 10.7325 8.25722 10.7325 9.76622C10.7325 11.2123 9.55769 12.0114 8.05876 12.0114C6.51228 12.0114 5.16072 11.3855 5.31337 9.21608C5.37326 8.96127 7.33954 9.02175 7.33954 9.21608C7.31605 10.1114 7.51978 10.3745 8.03528 10.3745C8.43041 10.3745 8.61066 10.1567 8.61066 9.78912C8.61066 9.23347 8.02654 8.90558 7.35454 8.52836C6.44449 8.01752 5.37326 7.41619 5.37326 6.03622C5.37326 4.65883 6.32029 3.74056 8.01121 3.74056C9.70212 3.74056 10.6251 4.64473 10.6251 6.36501ZM11.9377 1.56621L10.0732 1.68282L10.0001 3.81907C9.9992 3.85973 10.0078 3.89935 10.0285 3.93167C10.076 4.00777 10.1657 4.02237 10.2278 3.96503L11.0638 3.19875L11.7696 3.87016C11.7963 3.89518 11.8291 3.90769 11.8627 3.90665C11.9404 3.90248 12.0025 3.82324 11.9999 3.72837L11.9377 1.56621Z" fill="#E7437A"/>
</svg>

<svg xmlns="http://www.w3.org/2000/svg" width="16" height="16" fill="none"><path fill="#E7437A" fill-rule="evenodd" d="m2.633 2.782.4 10.662a.65.65 0 0 0 .62.625l8.668.389h.03A.65.65 0 0 0 13 13.81V2.191l-.001-.04a.65.65 0 0 0-.69-.608l-9.068.567a.65.65 0 0 0-.608.672Zm7.992 3.583c-.229.177-1.93.298-1.93.046.035-.964-.396-1.006-.636-1.006-.227 0-.611.069-.611.585 0 .526.56.823 1.218 1.172.935.496 2.066 1.095 2.066 2.604 0 1.446-1.174 2.245-2.673 2.245-1.547 0-2.898-.625-2.746-2.795.06-.255 2.027-.194 2.027 0-.024.895.18 1.159.695 1.159.395 0 .576-.218.576-.586 0-.556-.584-.883-1.256-1.26-.91-.511-1.982-1.113-1.982-2.493 0-1.377.947-2.295 2.638-2.295 1.691 0 2.614.904 2.614 2.624Zm1.313-4.799-1.865.117L10 3.819a.2.2 0 0 0 .028.113c.048.076.138.09.2.033l.836-.766.706.671a.13.13 0 0 0 .093.037c.077-.005.14-.084.137-.179l-.062-2.162Z" clip-rule="evenodd"/></svg>
